Yaru++/apps/scalable/power-statistics.svg

<svg enable-background="new" height="256" viewBox="0 0 256 256" width="256" xmlns="http://www.w3.org/2000/svg" xmlns:xlink="http://www.w3.org/1999/xlink">
  <linearGradient id="linearGradient3731" gradientUnits="userSpaceOnUse" x1="127.829937" x2="127.824937" y1="217.671154" y2="40.672154">
    <stop offset="0" stop-color="#f7f7f7"/>
    <stop offset="1" stop-color="#e6e6e6"/>
  </linearGradient>
  <linearGradient id="linearGradient4358" gradientTransform="matrix(0 -1 1 0 -10.0054 585.9946)" gradientUnits="userSpaceOnUse" x1="88" x2="488" y1="88" y2="488">
    <stop offset="0" stop-opacity=".588235"/>
    <stop offset=".88" stop-opacity="0"/>
    <stop offset="1"/>
  </linearGradient>
  <filter id="filter4380" color-interpolation-filters="sRGB" height="1.088" width="1.106" x="-.05" y="-.04">
    <feGaussianBlur stdDeviation="8.48"/>
  </filter>
  <filter id="filter4346" color-interpolation-filters="sRGB" height="1.022" width="1.026" x="-.01" y="-.01">
    <feGaussianBlur stdDeviation="2.12"/>
  </filter>
  <path d="m189.84323 74c-70.59344 0-78.18921 7.250835-77.84323 77.98706v146.01294 146.01294c-.34598 70.73623 7.24979 77.98706 77.84323 77.98706h196.31354c70.59344 0 76.00668-7.27384 77.84323-77.98706v-146.01294-146.01294c0-70.737067-7.24979-77.98706-77.84323-77.98706z" filter="url(#filter4346)" opacity=".1" transform="matrix(0 .5 -.5 0 276.82523 -15.328148)"/>
  <path d="m189.84323 74c-70.59344 0-78.18921 7.250835-77.84323 77.98706v146.01294 146.01294c-.34598 70.73623 7.24979 77.98706 77.84323 77.98706h196.31354c70.59344 0 77.84323-7.24999 77.84323-77.98706v-146.01294-146.01294c0-70.737067-7.24979-77.98706-77.84323-77.98706z" fill="url(#linearGradient4358)" filter="url(#filter4380)" opacity=".3" transform="matrix(0 .5 -.5 0 276.82523 -15.328148)"/>
  <path d="m241.83043 77.478254c0-36.098811-3.69016-39.983003-39.68984-39.806081h-74.31016-74.310153c-35.99969-.176922-39.68984 3.70727-39.68984 39.806081v100.387316c0 36.09881 3.68973 39.80608 39.68984 39.80608h74.310153 74.31016c36.00011 0 39.68984-3.70727 39.68984-39.80608z" opacity=".1"/>
  <path d="m239.82523 176.74483c0 35.29673-3.62542 39.09461-38.99353 38.92162h-73.00647-73.006463c-35.36812.17299-38.99353-3.62489-38.99353-38.92162v-98.156756c0-35.296716 3.625-38.921616 38.99353-38.921616h73.006463 73.00647c35.36853 0 38.99353 3.6249 38.99353 38.921616z" fill="url(#linearGradient3731)"/>
  <path d="m15.827937 80.790564h27.61877c42.43308-.33693 24.2921 101.211506 56.03384 103.970706h9.825643 21.82566c35.96796 0 21.55293-124.065212 46.69309-124.065212 23.78901 0 19.21863 81.111832 34.17004 81.111832 12.68678 0 8.52054-37.06514 20.04026-37.06514h7.79269" fill="none" stroke="#1a7fd4" stroke-width="2"/>
  <path d="m239.82793 168.66676h-11.61877c-18.6792 0-14.00952-48.95284-29.25765-48.95284s-6.7394 17.28667-18.45985 13.67056-6.80521-68.543912-36.31635-68.688422h-9.82565-9.82566c-35.967953 0-21.55292 124.065212-46.693073 124.065212-23.78902 0-19.21864-81.11184-34.17005-81.11184-12.68678 0-8.52054 37.06514-20.04026 37.06514h-7.79268" fill="none" stroke="#da1636" stroke-width="2"/>
  <path d="m54.818171 39.667201c-35.36853 0-38.992187 3.623202-38.992187 38.919923v98.158196c0 .0882.0019.16224.002.25v-96.410146c-.000047-35.29672 3.625564-38.921879 38.994094-38.921879h73.005852 73.00586c35.28016 0 38.97394 3.621035 38.99219 38.671879v-1.74805c0-35.296721-3.62561-38.919923-38.99414-38.919923h-73.00586z" fill="#fff" opacity=".3"/>
  <path d="m15.825984 174.74532v2c0 35.29673 3.624067 39.09487 38.992187 38.92188h73.007809 73.00586c35.36811.17299 38.99414-3.62515 38.99414-38.92188v-2c0 35.29673-3.62603 39.09487-38.99414 38.92188h-73.00586-73.007809c-35.36812.17299-38.992187-3.62515-38.992187-38.92188z" opacity=".2"/>
</svg>

<svg xmlns="http://www.w3.org/2000/svg" xmlns:xlink="http://www.w3.org/1999/xlink" style="enable-background:new" width="256" height="256" version="1.0" viewBox="0 0 256 256">
 <title id="title4162">
  Adwaita Icon Template
 </title>
 <defs>
  <linearGradient id="linearGradient1099" x1="32" x2="96" y1="236" y2="236" gradientTransform="translate(604.81684,170.58641)" gradientUnits="userSpaceOnUse" xlink:href="#linearGradient1036"/>
  <linearGradient id="linearGradient1036">
   <stop id="stop1032" offset="0" style="stop-color:#d5d3cf"/>
   <stop id="stop1034" offset="1" style="stop-color:#f6f5f4"/>
  </linearGradient>
  <radialGradient id="radialGradient1103" cx="-244" cy="-76" r="32" fx="-244" fy="-76" gradientTransform="matrix(0.88333331,0,0,0.88333331,-460.35018,463.11973)" gradientUnits="userSpaceOnUse" xlink:href="#linearGradient1069"/>
  <linearGradient id="linearGradient1069">
   <stop id="stop1065" offset="0" style="stop-color:#d5d3cf"/>
   <stop id="stop1067-1" offset="1" style="stop-color:#949390"/>
  </linearGradient>
  <linearGradient id="linearGradient1027" x1="64" x2="64" y1="262.5" y2="232" gradientTransform="translate(-470.5864,432.81685)" gradientUnits="userSpaceOnUse" xlink:href="#linearGradient1025"/>
  <linearGradient id="linearGradient1025">
   <stop id="stop1021" offset="0" style="stop-color:#9a9996"/>
   <stop id="stop1023" offset="1" style="stop-color:#77767b"/>
  </linearGradient>
  <linearGradient id="linearGradient1076">
   <stop style="stop-color:#d5d3cf" id="stop1064" offset="0"/>
   <stop id="stop1066" offset=".036" style="stop-color:#e4e1de"/>
   <stop style="stop-color:#d5d3cf" id="stop1068" offset=".071"/>
   <stop id="stop1070" offset=".929" style="stop-color:#d5d3cf"/>
   <stop style="stop-color:#e4e1de" id="stop1072" offset=".964"/>
   <stop style="stop-color:#d5d3cf" id="stop1074" offset="1"/>
  </linearGradient>
  <linearGradient id="linearGradient1020">
   <stop style="stop-color:#ffffff" id="stop1016" offset="0"/>
   <stop style="stop-color:#ffffff;stop-opacity:0.09411765" id="stop1018" offset="1"/>
  </linearGradient>
  <radialGradient id="radialGradient1030-8" cx="64" cy="194.19" r="44" fx="64" fy="194.19" gradientTransform="matrix(-4.7272726,1.2901346e-6,-3.0301491e-7,-1.4318182,490.54548,36.71204)" gradientUnits="userSpaceOnUse" xlink:href="#linearGradient1020"/>
  <linearGradient id="linearGradient1444-2-3-3" x1="120" x2="568" y1="619.964" y2="619.964" gradientTransform="matrix(0.25,0,0,0.25,105.99999,91.009027)" gradientUnits="userSpaceOnUse" xlink:href="#linearGradient1076"/>
  <filter id="filter4569" width="1.023" height="1.025" x="-.01" y="-.01" style="color-interpolation-filters:sRGB">
   <feGaussianBlur id="feGaussianBlur22" stdDeviation="1.16"/>
  </filter>
  <filter id="filter1132" width="1.046" height="1.05" x="-.02" y="-.03" style="color-interpolation-filters:sRGB">
   <feGaussianBlur id="feGaussianBlur19" stdDeviation="2.32"/>
  </filter>
  <linearGradient id="linearGradient2059" x1="168" x2="168" y1="284" y2="28" gradientTransform="matrix(0.26458333,0,0,0.26458333,-6.993469,221.97263)" gradientUnits="userSpaceOnUse">
   <stop style="stop-color:#f7f7f7" id="stop14" offset="0"/>
   <stop style="stop-color:#e6e6e6" id="stop16" offset="1"/>
  </linearGradient>
  <linearGradient id="linearGradient1108" x1="296" x2="296" y1="-212" y2="236" gradientUnits="userSpaceOnUse">
   <stop style="stop-color:#ffffff" id="stop2" offset="0"/>
   <stop style="stop-color:#ffffff;stop-opacity:.09803922" id="stop4" offset=".125"/>
   <stop style="stop-color:#000000;stop-opacity:0" id="stop6" offset=".925"/>
   <stop style="stop-color:#000000;stop-opacity:0" id="stop8" offset="1"/>
  </linearGradient>
  <clipPath id="clipPath1082-3-360">
   <path style="fill:#8c59d9" d="M 361.9375,-212 C 507.2348,-212 528,-191.28677 528,-46.125 V 70.125 C 528,215.28618 507.2348,236 361.9375,236 H 214.0625 C 68.7652,236 48,215.28618 48,70.125 V -46.125 C 48,-191.28677 68.7652,-212 214.0625,-212 Z"/>
  </clipPath>
  <linearGradient id="linearGradient3731" x1="152.002" x2="151.997" y1="246.002" y2="69.003" gradientTransform="translate(-24.172063,-28.330846)" gradientUnits="userSpaceOnUse" xlink:href="#linearGradient3797-5"/>
  <linearGradient id="linearGradient3797-5">
   <stop id="stop3801" offset="0" style="stop-color:#f7f7f7"/>
   <stop id="stop3799" offset="1" style="stop-color:#e6e6e6"/>
  </linearGradient>
  <linearGradient id="linearGradient4358" x1="88" x2="488" y1="88" y2="488" gradientTransform="rotate(-90,287.9946,298)" gradientUnits="userSpaceOnUse" xlink:href="#linearGradient4360"/>
  <linearGradient id="linearGradient4360">
   <stop id="stop4362" offset="0" style="stop-color:#000000;stop-opacity:0.58823532"/>
   <stop style="stop-color:#000000;stop-opacity:0" id="stop4364" offset=".88"/>
   <stop id="stop4366" offset="1" style="stop-color:#000000"/>
  </linearGradient>
  <filter style="color-interpolation-filters:sRGB" id="filter4380" width="1.106" height="1.088" x="-.05" y="-.04">
   <feGaussianBlur id="feGaussianBlur4382" stdDeviation="8.48"/>
  </filter>
  <filter style="color-interpolation-filters:sRGB" id="filter4346" width="1.026" height="1.022" x="-.01" y="-.01">
   <feGaussianBlur id="feGaussianBlur4348" stdDeviation="2.12"/>
  </filter>
 </defs>
 <path style="opacity:0.1;filter:url(#filter4346)" d="M 189.84323,74 C 119.24979,74 111.65402,81.250835 112,151.98706 V 298 444.01294 C 111.65402,514.74917 119.24979,522 189.84323,522 H 386.15677 C 456.75021,522 462.16345,514.72616 464,444.01294 V 298 151.98706 C 464,81.249993 456.75021,74 386.15677,74 Z" transform="matrix(0,0.5,-0.5,0,276.82523,-15.328148)"/>
 <path d="M 189.84323,74 C 119.24979,74 111.65402,81.250835 112,151.98706 V 298 444.01294 C 111.65402,514.74917 119.24979,522 189.84323,522 H 386.15677 C 456.75021,522 464,514.75001 464,444.01294 V 298 151.98706 C 464,81.249993 456.75021,74 386.15677,74 Z" transform="matrix(0,0.5,-0.5,0,276.82523,-15.328148)" style="opacity:0.3;fill:url(#linearGradient4358);filter:url(#filter4380)"/>
 <path style="opacity:0.1" d="m 241.83043,77.478254 c 0,-36.098811 -3.69016,-39.983003 -39.68984,-39.806081 H 127.83043 53.520277 c -35.99969,-0.176922 -39.68984,3.70727 -39.68984,39.806081 V 177.86557 c 0,36.09881 3.68973,39.80608 39.68984,39.80608 h 74.310153 74.31016 c 36.00011,0 39.68984,-3.70727 39.68984,-39.80608 z"/>
 <path style="fill:url(#linearGradient3731)" d="m 239.82523,176.74483 c 0,35.29673 -3.62542,39.09461 -38.99353,38.92162 H 127.82523 54.818767 c -35.36812,0.17299 -38.99353,-3.62489 -38.99353,-38.92162 V 78.588074 c 0,-35.296716 3.625,-38.921616 38.99353,-38.921616 h 73.006463 73.00647 c 35.36853,0 38.99353,3.6249 38.99353,38.921616 z"/>
 <path style="fill:none;stroke:#1a7fd4;stroke-width:2" d="m 15.827937,80.790564 h 27.61877 c 42.43308,-0.33693 24.2921,101.211506 56.03384,103.970706 h 9.825643 21.82566 c 35.96796,0 21.55293,-124.065212 46.69309,-124.065212 23.78901,0 19.21863,81.111832 34.17004,81.111832 12.68678,0 8.52054,-37.06514 20.04026,-37.06514 h 7.79269"/>
 <path d="m 239.82793,168.66676 h -11.61877 c -18.6792,0 -14.00952,-48.95284 -29.25765,-48.95284 -15.24813,0 -6.7394,17.28667 -18.45985,13.67056 -11.72045,-3.61611 -6.80521,-68.543912 -36.31635,-68.688422 h -9.82565 -9.82566 c -35.967953,0 -21.55292,124.065212 -46.693073,124.065212 -23.78902,0 -19.21864,-81.11184 -34.17005,-81.11184 -12.68678,0 -8.52054,37.06514 -20.04026,37.06514 h -7.79268" style="fill:none;stroke:#da1636;stroke-width:2"/>
 <path style="opacity:0.3;fill:#ffffff" d="m 54.818171,39.667201 c -35.36853,0 -38.992187,3.623202 -38.992187,38.919923 v 98.158196 c 0,0.0882 0.0019,0.16224 0.002,0.25 V 80.585174 c -4.7e-5,-35.29672 3.625564,-38.921879 38.994094,-38.921879 h 73.005852 73.00586 c 35.28016,0 38.97394,3.621035 38.99219,38.671879 v -1.74805 c 0,-35.296721 -3.62561,-38.919923 -38.99414,-38.919923 h -73.00586 z"/>
 <path style="opacity:0.2" d="m 15.825984,174.74532 v 2 c 0,35.29673 3.624067,39.09487 38.992187,38.92188 h 73.007809 73.00586 c 35.36811,0.17299 38.99414,-3.62515 38.99414,-38.92188 v -2 c 0,35.29673 -3.62603,39.09487 -38.99414,38.92188 H 127.82598 54.818171 c -35.36812,0.17299 -38.992187,-3.62515 -38.992187,-38.92188 z"/>
</svg>
